cached_logos/wa-lang.svg

<svg xmlns="http://www.w3.org/2000/svg" role="img" viewBox="43.75 44.00 312.00 311.75"><title>Wa-lang logo</title><path fill="#20b2aa" fill-rule="evenodd" d="M50 70c0-11.0457 8.9543-20 20-20h60c11.046 0 20 8.9543 20 20v80h100V70c0-11.0457 8.954-20 20-20h60c11.046 0 20 8.9543 20 20v260c0 11.046-8.954 20-20 20H70c-11.0457 0-20-8.954-20-20V70z" clip-rule="evenodd"/><circle cx="100" cy="100" r="5" fill="#fff"/><circle cx="300" cy="100" r="5" fill="#fff"/><path stroke="#fff" stroke-dasharray="192 0" stroke-linecap="round" stroke-width="8" d="M200 230l34 34 34-34m-68 0l-34 34-34-34"/></svg>

<svg xmlns="http://www.w3.org/2000/svg" role="img" viewBox="44.01 44.01 311.74 311.74"><title>Wa-lang logo</title><path fill="#20b2aa" fill-rule="evenodd" d="M50 70C50 58.9543 58.9543 50 70 50H130C141.046 50 150 58.9543 150 70V74V130V150H250V130V74V70C250 58.9543 258.954 50 270 50H330C341.046 50 350 58.9543 350 70V94V130V330C350 341.046 341.046 350 330 350H70C58.9543 350 50 341.046 50 330V130V94V70Z" clip-rule="evenodd"/><circle cx="100" cy="100" r="5" fill="#fff"><animate attributeName="r" dur="1s" repeatCount="1" values="0;5;5;0"/></circle><circle cx="300" cy="100" r="5" fill="#fff"><animate attributeName="r" dur="1s" repeatCount="1" values="0;5;5;0"/></circle><path fill="#20b2aa" stroke="#fff" stroke-dasharray="0 0 0 192" stroke-linecap="round" stroke-width="8" d="M200 230L234 264L268 230M200 230L166 264L132 230"><animate fill="freeze" attributeName="stroke-dasharray" attributeType="XML" dur="1.5s" keyTimes="0; 0.5;1" repeatCount="1" values="0,0,0,192;0,96,96,0; 192,0,0,0"/></path></svg>
